X: 042145
T: Down the Road
C: Joe Liddy
Z: BB
S: "The Leitrim Fiddler" (Dublin 1981)
L: 1/8
M: 4/4
R: reel
Q: 1/4 = 180
K: G
Ac | BG G2 BGcA | BGGD FGAc | BG G2 BGFG | Bcde f2 dc |
BG G2 BGAc | BGFE FGAc | Bcde fdcA | BGFD G2 :|
f2 | gfdc Bcde | f2 fe fdef | gfdc BABc | defa g2 ga |
gfdc dfdB | cfdc BGFG | Bcdf gfdc | BGFD G2 ||
Bc | d2 gf gfdc | Bcde f2 ga | gfdB cfdc | BGFD F2 DF |
G 2FD GBFG | BcdB cdBc | dg (3agf gfdc | BGFD G4 ||
%%%%%%%%%%%%%%%%%%%
